X: 55
T: An Eagle Nation Is Coming
C: Teton Sioux band 1911-1914
N: Derived from sioux055.krn
O: South Dakota, U.S.A.
N: Teton Sioux Music by Frances Densmore, 1918
Z: transcribed to **kern format by Craig Sapp
L: 1/8
M: 3/4
Q: 1/4=58
K: F clef=treble
%%linebreak <none>
F2 [I:setbarnb 1]| 
G2F2F2 | 
F2>C2F2 | 
A< F C CC2 | 
C2B, B,C2 | 
F2C CC2 | 
[K:clef=bass]C2A, A,C2 ||  
[M:2/4]F C C A, | 
F A, A, G, | 
G,2G, F, | 
F,2F,2- | 
F,2C2 ||  
[M:3/4]F2(3F C CC2 | 
C2A, A,C2 ||  
[M:2/4]F C C A, | 
F A, A, G, | 
G,3F, | 
G,3F, | 
F,2F,2- | 
F,2F,2 | 
G,2(3G, F, F, | 
F,2G,/ F,3/ | 
C, C,C,2- | 
C,2D,/ C,3/ ||  
[M:3/4]A,, A,,A,,4 ||  
[M:2/4]C A, A, G, | 
G,3F, | 
F,2F,2 | 
F,2C2 | 
F2(F C) | 
C C-C2 | 
C2C A,/ A,/ | 
A, C-C2 | 
(F C) (C A,) | 
(F A,) (A, G,) | 
G,2G, F, | 
G,2(G, F,) | 
F,2F,2- | 
F,2F,2 | 
G,2(3G, F, F, | 
F,2G,/ F,3/ | 
C, C,C,2- | 
C,2D, C, |[1 
A,, A,,A,,2 ||  
[M:3/4]F,,2z2 :|][2 
A,,2B,, A,, [I:setbarnb 44]| 
F,,4 |]  



